X:1
T:O, Who Shall Be Able to Stand?
T:O, Who Shall Be Able to Stand?
T:G. W. Brown
T:William Thomas Dale, 1896
T:Public Domain Courtesy of the Cyber Hymnal™
T:Public Domain Courtesy of the Cyber Hymnal™
C:G. W. Brown
Z:Public Domain
Z:Courtesy of the Cyber Hymnal™
%%score ( 1 2 ) 3
L:1/8
Q:1/4=100
M:4/4
K:E
V:1 treble 
V:2 treble 
V:3 bass 
V:1
 E>[EF] | [EG]2 [GB]>[Ac] [GB]2 [EG]>[DF] | E E2 [DF] [EG]2 [GB]2 | [Ac] [GB]2 [Ac] [GB]2 [EG]2 | %4
w: 1.~There’s a|great judg- ment day that is|com- ing, we know, It’s|com- ing to one and|
w: 2.~Then the|right- eous and wick- ed to-|geth- er shall meet, To|judg- ment they shall be|
w: 3.~There will|be great re- joic- ing of|hap- py ones there, Who|fol- lowed the Sav- ior|
w: 4.~But there’ll|be la- men- ta- tion and|mourn- ing that day, When|Je- sus shall say, “De-|
w: 5.~O! pre-|pare us, dear Lord, for Thy|com- ing ere long, The|judg- ment of that great|
 [DF]6 E>[EF] | [EG]2 [GB]>[Ac] [GB]2 [EG]>[DF] | E E2 [DF] [EG]2 [GB]2 | %7
w: all; For the|Judge shall des- cend in His|po- wer di- vine, And|
w: brought; And the|Judge shall pro- claim to the|right- eous, “Well done.” The|
w: here; When they|hear Him de- clare, “Come, ye|bless- èd of Mine, And|
w: part”; And the|wick- ed shall flee from His|pre- sence a- way, What|
w: day; When the|saints shall re- joice in Thy|pre- sence with song, The|
 [Ac] [GB]2 E [EG]2 [DF]2 | E6 ||"^Refrain" [EB]2 | [Ge]3 [Ge] [Ge]2 [EB]>[Ec] | %11
w: judge both the great and|small.|||
w: wick- ed, “I know you|not.”|||
w: en- ter My home so|fair.”|When|Je- sus comes and the|
w: ren- ding of ev- ery|heart!|||
w: wick- ed be driv’n a-|way.|||
 [Ge] [Ge]2 [Ec] [EB]2 [EG]2 | [Ec]3 [Ec] [EB]2 [EG]2 | [EG]2 E2 !fermata![DF]2 E>[EF] | %14
w: |||
w: |||
w: judg- ment is set, O!|who will be on|His right hand? When the|
w: |||
w: |||
 [EG]2 [EB]>[Ec] [EB]2 [EG]>[DF] | E E2 [DF] [EG]2 [EB]2 | [Ec] [EB]2 E [EG][EG] [DF]2 | E6 |] %18
w: ||||
w: ||||
w: trump- et shall sound, and the|na- tions have come, O!|who shall be a- ble to|stand?|
w: ||||
w: ||||
V:2
 E3/2 x/ | x8 | E E2 x5 | x8 | x6 E3/2 x/ | x8 | E E2 x5 | x3 E x4 | E6 || x2 | x8 | x8 | x8 | %13
 x2 E2 E3/2 x5/2 | x8 | E E2 x5 | x3 E x4 | E6 |] %18
V:3
 [E,G,]>[E,B,] | [E,B,]2 [E,E]>[E,E] [E,E]2 [E,B,]>[B,,A,] | %2
 [C,G,] [C,G,]2 [B,,B,] [E,B,]2 [E,E]2 | [E,E] [E,E]2 [E,E] [E,E]2 [E,B,]2 | %4
 [B,,B,]6 [E,G,]>[E,A,] | [E,B,]2 [E,E]>[E,E] [E,E]2 [E,B,]>[B,,A,] | %6
 [C,G,] [C,G,]2 [B,,B,] [E,B,]2 [E,E]2 | [E,E] [E,E]2 [E,G,] [B,,B,]2 [B,,A,]2 | [E,G,]6 || %9
 [E,G,]2 | [E,B,]3 [E,B,] [E,B,]2 [E,G,]>[E,A,] | [E,B,] [E,B,]2 [E,A,] [E,G,]2 [E,B,]2 | %12
 [A,,A,]3 [A,,A,] [E,G,]2 [E,B,]2 | [E,B,]2 [C,^A,]2 !fermata![B,,B,]2 [E,G,]>[E,A,] | %14
 [E,B,]2 [E,G,]>[E,A,] [E,G,]2 [E,B,]>[B,,A,] | [C,G,] [C,G,]2 [B,,B,] [E,B,]2 [E,G,]2 | %16
 [E,A,] [E,G,]2 [G,,B,] [B,,B,][B,,B,] [B,,A,]2 | [E,G,]6 |] %18

